X:7
T:Factory Smoke
R:hornpipe
D:Lisa MacArthur, Theresa MacLellen (LP)
Z:Paul Stewart Cranford (P.S.C.), <http://www.cranfordpub.com>
L:1/8
M:C|
Q:300
K:Gdor
dc|BAG^F GABc|dg (3(fga) g2 ag|fdcf dcBA|(3Bdc (3BAG F2 dc|
BAG^F GABc|dg (3(fga) g2 ag|fdc=B (3(cde) (3(ABc)|=B2 G2 G2:|
|:ga|=bgd=B gdBG|DG=Bd gd=bg|afcA fcAF|CFAc BAG^F|
G^FGA BABc|dg (3(^fga) g2 ag|fdc=B (3(cde) (3(ABc)|=B2 G2 G2:|
